!!!OTL: Caiquange
!!!ARE: Asia, China,ÿJiangxi Jian
!! IV, 227
!!!SCT: C1863
!!!YEM: Copyright 1995, estate of Helmut Schaffrath.
**kern
*ICvox
*Ivox
*M2/4
*k[b-e-]
*B-:
{8bb-
8bb-
8bb-
8ccc
=1
8ddd
8ccc
4ddd
=2
8ccc
8bb-
8ddd
8ccc
=3
2bb-}
=4
{8ccc
8bb-
8ddd
8ccc
=5
8bb-
16ccc
16bb-
4gg}
=6
{8ff
8ff
8ff
8bb-
=7
8gg
4gg
8bb-
=8
8ccc
4bb-
8ccc
=9
8ddd
8ccc
4ddd
=10
8ccc
16bb-
16ccc
8ddd
8ccc
=11
2bb-}
=12
{8ccc
16bb-
16ccc
8ddd
8ccc
=13
8bb-
8ccc
4gg
=14
8ff
8ff
8ff
8bb-
=15
2gg}
=16
{8ff
8ff
8ff
8bb-
=17
8gg
4gg
8bb-
=18
8ff
8ff
8ff
8bb-
=19
8gg
4gg
8bb-}
=20
{8ccc
4bb-
8ccc
=21
8ddd
8ccc
4ddd
=22
8ccc
16bb-
16ccc
8ddd
8ccc
=23
2bb-}
=24
{8ccc
16bb-
16ccc
8ddd
8ccc
=25
8bb-
8ccc
4gg}
=26
{8ff
8ff
8ff
8bb-
=27
4.gg
8bb-
=28
8ff
8ff
8ff
8bb-
=29
2gg}
==
!!!AGN: Xiaodiao
!!!AMT: simple duple
!!!AIN: vox
!!!EED: Helmut Schaffrath
!!!EEV: 1.0
*-
